<?xml version="1.0" encoding="UTF-8"?>
<map version="1.10" tiledversion="1.11.0" orientation="orthogonal" renderorder="right-down" width="16" height="16" tilewidth="32" tileheight="32" infinite="0" nextlayerid="5" nextobjectid="9">
 <editorsettings>
  <export target="../exported/template.json" format="json"/>
 </editorsettings>
 <tileset firstgid="1" source="../Prefabs.tsx"/>
 <layer id="1" name="Tile Layer 1" width="16" height="16">
  <data encoding="csv">
0,0,0,0,0,0,0,0,0,0,0,0,0,0,0,0,
0,0,33,1,21,0,0,0,0,1,1,1,1,1,0,0,
0,33,1,1,1,21,0,1,1,1,0,0,0,1,0,0,
0,1,1,41,1,1,1,1,0,0,0,0,0,1,5,0,
0,29,1,1,1,25,0,1,0,1,1,1,57,1,1,49,
0,45,1,1,1,0,0,1,0,1,37,1,0,1,1,0,
57,1,1,41,1,49,0,1,1,1,1,1,0,13,1,49,
0,13,1,1,1,0,0,1,37,1,37,1,0,0,1,0,
0,0,13,1,1,1,1,1,1,1,1,1,0,57,1,49,
0,0,0,0,1,1,0,0,0,0,0,0,0,17,1,0,
0,17,1,0,1,1,0,1,1,21,0,33,1,1,1,0,
0,1,1,5,0,1,1,1,1,1,1,1,1,1,0,0,
0,1,1,1,0,1,0,13,1,0,0,13,1,0,0,0,
0,1,1,1,0,1,0,0,1,0,45,0,1,0,0,0,
0,13,1,1,1,1,0,0,1,1,1,1,1,0,0,0,
0,0,0,0,0,0,0,0,0,0,53,0,0,0,0,0
</data>
 </layer>
 <layer id="4" name="Tile Layer 2" width="16" height="16">
  <properties>
   <property name="operation" value="difference"/>
  </properties>
  <data encoding="csv">
0,0,0,0,0,0,0,0,0,0,0,0,0,0,0,0,
0,0,0,0,0,0,0,0,0,0,0,0,0,0,0,0,
0,0,0,0,0,0,0,0,0,0,0,0,0,0,0,0,
0,0,0,0,0,0,0,0,0,0,0,0,0,0,0,0,
0,0,0,0,0,0,0,0,0,0,0,0,0,0,0,0,
0,0,0,0,0,0,0,0,0,0,0,0,0,0,0,0,
0,0,0,0,0,0,0,0,0,0,0,0,0,0,0,0,
0,0,0,0,0,0,0,0,0,0,0,0,0,0,0,0,
0,0,0,0,0,0,0,0,0,0,0,0,0,0,0,0,
0,0,0,0,52,60,0,0,0,0,0,0,0,0,0,0,
0,0,0,0,0,0,0,0,0,0,0,0,0,0,0,0,
0,0,0,0,0,0,0,0,0,0,0,0,0,0,0,0,
0,0,0,0,0,0,0,0,0,0,0,0,0,0,0,0,
0,0,0,0,0,0,0,0,0,0,0,0,0,0,0,0,
0,0,0,0,0,0,0,0,0,0,0,0,0,0,0,0,
0,0,0,0,0,0,0,0,0,0,0,0,0,0,0,0
</data>
 </layer>
</map>
